src/travel-places/transport-ground/1F68B.svg

<?xml version="1.0" encoding="UTF-8"?>
<svg id="emoji" xmlns="http://www.w3.org/2000/svg" viewBox="0 0 72 72">
  <g id="grid">
    <path d="m68,4v64H4V4h64m4-4H0v72h72V0Z" fill="#b3b3b3"/>
    <path d="m12.923,10.9583h46.1539c1.0621,0,1.9231.861,1.9231,1.9231h0v46.1538c0,1.0621-.861,1.9231-1.9231,1.9231H12.9231c-1.0621,0-1.9231-.861-1.9231-1.9231h0V12.8813c0-1.062.861-1.923,1.923-1.923h0Z" fill="none" stroke="#00a5ff" stroke-miterlimit="10" stroke-width=".1"/>
    <rect x="16" y="4" width="40" height="64" rx="2.2537" ry="2.2537" fill="none" stroke="#00a5ff" stroke-miterlimit="10" stroke-width=".1"/>
    <rect x="4" y="16" width="64" height="40" rx="2.2537" ry="2.2537" fill="none" stroke="#00a5ff" stroke-miterlimit="10" stroke-width=".1"/>
    <circle cx="36" cy="36" r="29" fill="none" stroke="#00a5ff" stroke-miterlimit="10" stroke-width=".1"/>
  </g>
  <g id="color">
    <polygon points="22.6453 27.7929 22.6453 35.2442 65 36 65.1178 27.8674 22.6453 27.7929" fill="#fff"/>
    <rect x="21.5264" y="35.5642" width="45.2778" height="12.0246" fill="#ea5a47"/>
    <rect x="34.358" y="32.2353" width="6.3408" height="10.6464" rx="1.0578" ry="1.0578" fill="#92d3f5"/>
    <rect x="21.4024" y="32.2353" width="6.3408" height="10.6464" rx="1.0578" ry="1.0578" fill="#92d3f5"/>
    <rect x="47.3682" y="32.2353" width="6.3408" height="10.6464" rx="1.0578" ry="1.0578" fill="#92d3f5"/>
    <rect x="60.3785" y="32.2353" width="6.3408" height="10.6464" rx="1.0578" ry="1.0578" fill="#92d3f5"/>
    <path d="m33.749,51.1115c-.0114,2.3441-1.921,4.2352-4.2652,4.2237-2.328-.0114-4.2124-1.8958-4.2237-4.2237" fill="#d0cfce"/>
    <path d="m62.7161,51.1115c-.0114,2.3441-1.921,4.2352-4.2652,4.2237-2.328-.0114-4.2124-1.8958-4.2237-4.2237" fill="#d0cfce"/>
    <rect x="22.1962" y="47.0487" width="43.9381" height="4.0628" fill="#3f3f3f"/>
  </g>
  <g id="line">
    <line x1="3" y1="56" x2="67" y2="56" fill="none" stroke="#000" stroke-linecap="round" stroke-linejoin="round" stroke-width="2"/>
    <line x1="21" y1="16" x2="67" y2="16" fill="none" stroke="#000" stroke-linecap="round" stroke-linejoin="round" stroke-width="2"/>
    <polyline points="34.358 26.392 40 21 34 16" fill="none" stroke="#000" stroke-linecap="round" stroke-linejoin="round" stroke-width="2"/>
    <path d="m23.149,50.1115h-.819c-.4901-.0014-.887-.3983-.8884-.8884v-20.9343c.003-1.0463.8505-1.8938,1.8968-1.8968h41.4841c1.0463.003,1.8938.8505,1.8968,1.8968v20.9347c-.0014.4898-.3982.8866-.888.888h-.8291" fill="none" stroke="#000" stroke-linecap="round" stroke-miterlimit="10" stroke-width="2.0737"/>
    <line x1="51.9715" y1="50.1115" x2="35.8454" y2="50.1115" fill="none" stroke="#000" stroke-linecap="round" stroke-miterlimit="10" stroke-width="2.0737"/>
    <path d="m33.749,51.3635c.0114,2.3441-1.8796,4.2537-4.2237,4.2652-2.3441.0114-4.2537-1.8796-4.2652-4.2237,0-.0138,0-.0276,0-.0414" fill="none" stroke="#000" stroke-linecap="round" stroke-miterlimit="10" stroke-width="2.0737"/>
    <path d="m62.7161,51.1115c-.0114,2.3441-1.921,4.2352-4.2652,4.2237-2.328-.0114-4.2124-1.8958-4.2237-4.2237" fill="none" stroke="#000" stroke-linecap="round" stroke-miterlimit="10" stroke-width="2.0737"/>
    <rect x="34.358" y="32.2455" width="6.3408" height="10.6464" rx="1.0578" ry="1.0578" fill="none" stroke="#000" stroke-linecap="round" stroke-miterlimit="10" stroke-width="2.0737"/>
    <rect x="21.4024" y="32.2455" width="6.3408" height="10.6464" rx="1.0578" ry="1.0578" fill="none" stroke="#000" stroke-linecap="round" stroke-miterlimit="10" stroke-width="2.0737"/>
    <rect x="47.1963" y="32.3238" width="6.3408" height="10.6464" rx="1.0578" ry="1.0578" fill="none" stroke="#000" stroke-linecap="round" stroke-miterlimit="10" stroke-width="2.0737"/>
    <rect x="60.3785" y="32.3238" width="6.3408" height="10.6464" rx="1.0578" ry="1.0578" fill="none" stroke="#000" stroke-linecap="round" stroke-miterlimit="10" stroke-width="2.0737"/>
    <line x1="20.3843" y1="47.0306" x2="67.7524" y2="47.0306" fill="none" stroke="#000" stroke-linecap="round" stroke-miterlimit="10" stroke-width="1.9699"/>
  </g>
</svg>

<svg id="emoji" viewBox="0 0 72 72" xmlns="http://www.w3.org/2000/svg">
  <g id="grid">
    <path fill="#b3b3b3" d="M68,4V68H4V4H68m4-4H0V72H72V0Z"/>
    <path fill="none" stroke="#00a5ff" stroke-miterlimit="10" stroke-width="0.1" d="M12.923,10.9583H59.0769A1.9231,1.9231,0,0,1,61,12.8814V59.0352a1.9231,1.9231,0,0,1-1.9231,1.9231H12.9231A1.9231,1.9231,0,0,1,11,59.0352V12.8813A1.923,1.923,0,0,1,12.923,10.9583Z"/>
    <rect x="16" y="4" rx="2.2537" ry="2.2537" width="40" height="64" fill="none" stroke="#00a5ff" stroke-miterlimit="10" stroke-width="0.1"/>
    <rect x="16" y="4" rx="2.2537" ry="2.2537" width="40" height="64" transform="translate(72) rotate(90)" fill="none" stroke="#00a5ff" stroke-miterlimit="10" stroke-width="0.1"/>
    <circle cx="36" cy="36" r="29" fill="none" stroke="#00a5ff" stroke-miterlimit="10" stroke-width="0.1"/>
  </g>
  <g id="color">
    <rect x="21.5264" y="35.5642" width="45.2778" height="12.0246" fill="#ea5a47"/>
    <rect x="34.358" y="32.2353" rx="1.0578" ry="1.0578" width="6.3408" height="10.6464" fill="#92d3f5"/>
    <rect x="21.4024" y="32.2353" rx="1.0578" ry="1.0578" width="6.3408" height="10.6464" fill="#92d3f5"/>
    <rect x="47.3682" y="32.2353" rx="1.0578" ry="1.0578" width="6.3408" height="10.6464" fill="#92d3f5"/>
    <rect x="60.3785" y="32.2353" rx="1.0578" ry="1.0578" width="6.3408" height="10.6464" fill="#92d3f5"/>
    <path fill="#d0cfce" d="M33.749,51.1115a4.2445,4.2445,0,0,1-8.4889,0"/>
    <path fill="#d0cfce" d="M62.7161,51.1115a4.2445,4.2445,0,0,1-8.4889,0"/>
    <rect x="22.1962" y="47.0487" width="43.9381" height="4.0628" fill="#3f3f3f"/>
  </g>
  <g id="line">
    <line x1="3" x2="67" y1="56" y2="56" stroke="#000" stroke-linecap="round" stroke-linejoin="round" stroke-width="2"/>
    <line x1="21" x2="67" y1="16" y2="16" fill="none" stroke="#000" stroke-linecap="round" stroke-linejoin="round" stroke-width="2"/>
    <polyline fill="none" stroke="#000" stroke-linecap="round" stroke-linejoin="round" stroke-width="2" points="34.358 26.392 40 21 34 16"/>
    <path fill="none" stroke="#000" stroke-linecap="round" stroke-miterlimit="10" stroke-width="2.0737" d="M23.149,50.1115H22.33a.891.891,0,0,1-.8884-.8884V28.2888a1.9023,1.9023,0,0,1,1.8968-1.8968H64.8225a1.9023,1.9023,0,0,1,1.8968,1.8968V49.2235a.8906.8906,0,0,1-.888.888h-.8291"/>
    <line x1="51.9715" x2="35.8454" y1="50.1115" y2="50.1115" fill="none" stroke="#000" stroke-linecap="round" stroke-miterlimit="10" stroke-width="2.0737"/>
    <path fill="none" stroke="#000" stroke-linecap="round" stroke-miterlimit="10" stroke-width="2.0737" d="M33.749,51.3635a4.2445,4.2445,0,1,1-8.4889,0"/>
    <path fill="none" stroke="#000" stroke-linecap="round" stroke-miterlimit="10" stroke-width="2.0737" d="M62.7161,51.1115a4.2445,4.2445,0,0,1-8.4889,0"/>
    <rect x="34.358" y="32.2455" rx="1.0578" ry="1.0578" width="6.3408" height="10.6464" fill="none" stroke="#000" stroke-linecap="round" stroke-miterlimit="10" stroke-width="2.0737"/>
    <rect x="21.4024" y="32.2455" rx="1.0578" ry="1.0578" width="6.3408" height="10.6464" fill="none" stroke="#000" stroke-linecap="round" stroke-miterlimit="10" stroke-width="2.0737"/>
    <rect x="47.1963" y="32.3238" rx="1.0578" ry="1.0578" width="6.3408" height="10.6464" fill="none" stroke="#000" stroke-linecap="round" stroke-miterlimit="10" stroke-width="2.0737"/>
    <rect x="60.3785" y="32.3238" rx="1.0578" ry="1.0578" width="6.3408" height="10.6464" fill="none" stroke="#000" stroke-linecap="round" stroke-miterlimit="10" stroke-width="2.0737"/>
    <line x1="20.3843" x2="67.7524" y1="47.0306" y2="47.0306" fill="none" stroke="#000" stroke-linecap="round" stroke-miterlimit="10" stroke-width="1.9699"/>
  </g>
</svg>
